germany/municipalities/07131060.svg

<?xml version="1.0" encoding="UTF-8" standalone="no"?>
<!-- Created with Inkscape (http://www.inkscape.org/) -->

<svg
   xmlns:dc="http://purl.org/dc/elements/1.1/"
   xmlns:cc="http://creativecommons.org/ns#"
   xmlns:rdf="http://www.w3.org/1999/02/22-rdf-syntax-ns#"
   xmlns:svg="http://www.w3.org/2000/svg"
   xmlns="http://www.w3.org/2000/svg"
   xmlns:sodipodi="http://sodipodi.sourceforge.net/DTD/sodipodi-0.dtd"
   xmlns:inkscape="http://www.inkscape.org/namespaces/inkscape"
   width="197.93207mm"
   height="209.34358mm"
   viewBox="0 0 701.3341 741.76859"
   id="svg13959"
   version="1.1"
   inkscape:version="0.91 r13725"
   sodipodi:docname="DEU Oberzissen COA.svg">
  <defs
     id="defs13961">
    <inkscape:path-effect
       effect="spiro"
       id="path-effect14987"
       is_visible="true" />
    <inkscape:path-effect
       effect="spiro"
       id="path-effect14852"
       is_visible="true" />
    <inkscape:path-effect
       effect="spiro"
       id="path-effect14852-0"
       is_visible="true" />
    <inkscape:path-effect
       effect="spiro"
       id="path-effect14852-5"
       is_visible="true" />
    <inkscape:path-effect
       effect="spiro"
       id="path-effect14852-0-9"
       is_visible="true" />
    <inkscape:path-effect
       effect="spiro"
       id="path-effect14852-1"
       is_visible="true" />
    <inkscape:path-effect
       effect="spiro"
       id="path-effect14852-0-5"
       is_visible="true" />
    <inkscape:path-effect
       effect="spiro"
       id="path-effect14987-1"
       is_visible="true" />
  </defs>
  <sodipodi:namedview
     id="base"
     pagecolor="#ffffff"
     bordercolor="#666666"
     borderopacity="1.0"
     inkscape:pageopacity="0.0"
     inkscape:pageshadow="2"
     inkscape:zoom="0.72798985"
     inkscape:cx="350.66704"
     inkscape:cy="370.88431"
     inkscape:document-units="px"
     inkscape:current-layer="layer1"
     showgrid="false"
     inkscape:window-width="1366"
     inkscape:window-height="745"
     inkscape:window-x="-8"
     inkscape:window-y="-8"
     inkscape:window-maximized="1"
     fit-margin-top="0"
     fit-margin-left="0"
     fit-margin-right="0"
     fit-margin-bottom="0"
     inkscape:snap-midpoints="true"
     inkscape:snap-smooth-nodes="true"
     inkscape:object-nodes="true"
     inkscape:snap-nodes="true"
     inkscape:object-paths="true" />
  <metadata
     id="metadata13964">
    <rdf:RDF>
      <cc:Work
         rdf:about="">
        <dc:format>image/svg+xml</dc:format>
        <dc:type
           rdf:resource="http://purl.org/dc/dcmitype/StillImage" />
        <dc:title></dc:title>
      </cc:Work>
    </rdf:RDF>
  </metadata>
  <g
     inkscape:label="Ebene 1"
     inkscape:groupmode="layer"
     id="layer1"
     transform="translate(-21.732285,-24.28225)">
    <path
       style="fill:#ffffff;fill-rule:evenodd;stroke:none;stroke-width:11;stroke-opacity:1"
       inkscape:connector-curvature="0"
       d="M 27.411998,29.782251 40.809999,446.40666 c 7.414999,175.24977 153.919791,314.04607 331.589251,314.14417 177.50971,-0.2149 324.0694,-139.0612 331.58941,-314.14417 l 13.398,-416.624409 -344.97941,0 z"
       id="path10563-0-1" />
    <path
       style="opacity:1;fill:#0033ff;fill-opacity:1;fill-rule:nonzero;stroke:#000000;stroke-width:11;stroke-linecap:round;stroke-linejoin:round;stroke-miterlimit:4;stroke-dasharray:none;stroke-dashoffset:0;stroke-opacity:1"
       d="M 5.6796875 5.5 L 12.021484 202.70508 L 689.3125 202.70508 L 695.6543 5.5 L 350.67578 5.5 L 5.6796875 5.5 z "
       transform="translate(21.732285,24.28225)"
       id="rect14681" />
    <path
       style="fill:#ffffff;fill-rule:evenodd;stroke:#000000;stroke-width:5;stroke-linecap:butt;stroke-linejoin:round;stroke-miterlimit:4;stroke-dasharray:none;stroke-opacity:1"
       d="M 188.96094 16.023438 C 137.55527 15.807696 88.350553 36.240047 37.21875 42.550781 C 27.178546 43.789952 17.061572 44.463824 6.9375 44.587891 L 7.8847656 74.083984 C 17.692512 73.930426 27.491695 73.264974 37.21875 72.064453 C 89.999973 65.550146 140.72654 43.989951 193.94141 45.625 C 220.54561 46.442426 246.49445 53.066787 272.21289 59.451172 C 297.93134 65.835557 324.04731 72.064453 350.66602 72.064453 C 377.28473 72.064453 403.40069 65.835558 429.11914 59.451172 C 454.83758 53.066787 480.78643 46.442426 507.39062 45.625 C 560.6055 43.989951 611.334 65.550145 664.11523 72.064453 C 673.84229 73.264974 683.64147 73.930426 693.44922 74.083984 L 694.39648 44.587891 C 684.27241 44.463824 674.15739 43.789952 664.11719 42.550781 C 611.33596 36.036474 560.60744 14.476278 507.39258 16.111328 C 480.78838 16.928753 454.83758 23.553113 429.11914 29.9375 C 403.40069 36.321885 377.28669 42.550781 350.66797 42.550781 C 324.04926 42.550781 297.93134 36.321885 272.21289 29.9375 C 246.49444 23.553113 220.54756 16.928753 193.94336 16.111328 C 192.28039 16.060228 190.61918 16.030387 188.96094 16.023438 z M 188.96094 75.052734 C 137.55527 74.836994 88.350553 95.267385 37.21875 101.57812 C 27.805489 102.73992 18.324666 103.39715 8.8339844 103.57812 L 9.78125 133.07031 C 18.955433 132.8641 28.11865 132.21494 37.21875 131.0918 C 89.999973 124.5775 140.72654 103.01925 193.94141 104.6543 C 220.54561 105.47172 246.49445 112.09609 272.21289 118.48047 C 297.93134 124.86486 324.04731 131.0918 350.66602 131.0918 C 377.28473 131.0918 403.40069 124.86486 429.11914 118.48047 C 454.83758 112.09609 480.78643 105.47172 507.39062 104.6543 C 560.6055 103.01925 611.334 124.5775 664.11523 131.0918 C 673.21533 132.21494 682.37855 132.8641 691.55273 133.07031 L 692.5 103.57812 C 683.00932 103.39715 673.5285 102.73992 664.11523 101.57812 C 611.334 95.063815 560.6055 73.505592 507.39062 75.140625 C 480.78643 75.958064 454.83758 82.582407 429.11914 88.966797 C 403.40069 95.351187 377.28474 101.57812 350.66602 101.57812 C 324.04731 101.57812 297.93134 95.351187 272.21289 88.966797 C 246.49445 82.582407 220.54561 75.958064 193.94141 75.140625 C 192.27845 75.089525 190.61919 75.059734 188.96094 75.052734 z M 188.96094 134.08008 C 137.55527 133.86434 88.350553 154.29669 37.21875 160.60742 C 28.432446 161.69184 19.587448 162.3351 10.730469 162.56445 L 11.679688 192.05859 C 20.219419 191.80824 28.746235 191.16678 37.21875 190.12109 C 89.999973 183.60677 140.72654 162.0466 193.94141 163.68164 C 220.54561 164.49907 246.49445 171.12343 272.21289 177.50781 C 297.93134 183.8922 324.04731 190.12109 350.66602 190.12109 C 377.28474 190.12109 403.40069 183.8922 429.11914 177.50781 C 454.83758 171.12343 480.78643 164.49907 507.39062 163.68164 C 560.6055 162.0466 611.334 183.60677 664.11523 190.12109 C 672.58775 191.16678 681.11457 191.80824 689.6543 192.05859 L 690.60352 162.56445 C 681.74654 162.3351 672.90154 161.69184 664.11523 160.60742 C 611.334 154.09311 560.6055 132.53292 507.39062 134.16797 C 480.78643 134.9854 454.83758 141.60975 429.11914 147.99414 C 403.40069 154.37853 377.28474 160.60742 350.66602 160.60742 C 324.04731 160.60742 297.93134 154.37853 272.21289 147.99414 C 246.49445 141.60975 220.54561 134.9854 193.94141 134.16797 C 192.27845 134.11687 190.61919 134.08698 188.96094 134.08008 z "
       transform="translate(21.732285,24.28225)"
       id="path14850" />
    <path
       style="fill:#ff0000;fill-opacity:1;fill-rule:evenodd;stroke:#000000;stroke-width:5;stroke-linecap:butt;stroke-linejoin:round;stroke-miterlimit:4;stroke-dasharray:none;stroke-opacity:1"
       d="M 191.46094 202.70508 L 350.66797 468.23633 L 353.32227 202.70508 L 191.46094 202.70508 z M 350.66797 468.23633 L 686.7168 283.4043 L 689.3125 202.70508 L 507.97656 202.70508 L 350.66797 468.23633 z M 350.66797 468.23633 L 603.69336 620.09375 C 641.01525 576.67043 667.14462 523.52792 677.54102 464.96484 L 350.66797 468.23633 z M 350.66797 468.23633 L 347.98828 736.25 C 348.88054 736.2575 349.77216 736.26904 350.66602 736.26953 C 401.26674 736.20827 449.34502 724.86591 492.41211 704.64648 L 350.66797 468.23633 z M 350.66797 468.23633 L 90.275391 611.45703 C 122.18359 651.28642 163.22172 683.60601 210.18359 705.36914 L 350.66797 468.23633 z M 350.66797 468.23633 L 14.064453 266.2207 L 19.078125 422.125 C 19.79004 438.95075 21.795921 455.43484 24.976562 471.49805 L 350.66797 468.23633 z "
       transform="translate(21.732285,24.28225)"
       id="path15011" />
    <path
       style="fill:none;fill-rule:evenodd;stroke:#000000;stroke-width:11;stroke-opacity:1"
       inkscape:connector-curvature="0"
       d="M 27.412,29.78225 40.81,446.40666 c 7.415,175.24977 153.9198,314.04607 331.58926,314.14417 177.5097,-0.2149 324.0694,-139.0612 331.5894,-314.14417 l 13.398,-416.62441 -344.9794,0 z"
       id="path10563-0" />
    <path
       inkscape:connector-curvature="0"
       style="opacity:1;fill:none;fill-opacity:1;fill-rule:nonzero;stroke:#000000;stroke-width:11;stroke-linecap:round;stroke-linejoin:round;stroke-miterlimit:4;stroke-dasharray:none;stroke-dashoffset:0;stroke-opacity:1"
       d="m 27.411974,29.78225 6.3418,197.20508 677.291006,0 6.3418,-197.20508 -344.97852,0 -344.996086,0 z"
       id="rect14681-2" />
    <path
       style="opacity:1;fill:#ffd700;fill-opacity:1;fill-rule:nonzero;stroke:#000000;stroke-width:4.99999952;stroke-linecap:round;stroke-linejoin:round;stroke-miterlimit:4;stroke-dasharray:none;stroke-dashoffset:0;stroke-opacity:1"
       d="M 349.96094 223.8125 C 330.97398 223.8125 315.68945 239.09703 315.68945 258.08398 L 315.68945 309.55469 C 310.98341 305.67078 305.25254 303.38867 299.05078 303.38867 C 282.97312 303.38867 270.0293 318.67515 270.0293 337.66211 L 270.0293 516.21094 C 270.0293 535.19789 282.97312 550.48242 299.05078 550.48242 C 315.12845 550.48242 328.07227 535.19789 328.07227 516.21094 L 328.07227 463.04102 C 334.00155 467.95531 341.62314 470.90625 349.96094 470.90625 L 351.61914 470.90625 C 360.16857 470.90625 367.9622 467.79895 373.95312 462.6582 L 373.95312 481.38477 C 373.95312 500.37172 386.89695 515.6582 402.97461 515.6582 C 419.05227 515.6582 431.99609 500.37172 431.99609 481.38477 L 431.99609 302.83594 C 431.99609 283.84898 419.05227 268.56445 402.97461 268.56445 C 396.57688 268.56445 390.67964 270.99069 385.89258 275.10156 L 385.89258 258.08398 C 385.89258 239.09703 370.6061 223.8125 351.61914 223.8125 L 349.96094 223.8125 z M 350.79102 247.54102 C 358.44705 247.54102 364.60938 256.17023 364.60938 266.88867 L 364.60938 446.57812 C 364.60938 457.29658 358.44705 465.92578 350.79102 465.92578 C 343.13499 465.92578 336.9707 457.29658 336.9707 446.57812 L 336.9707 266.88867 C 336.9707 256.17023 343.13499 247.54102 350.79102 247.54102 z M 402.97461 292.89062 C 410.63064 292.89062 416.79297 301.51984 416.79297 312.23828 L 416.79297 321.57617 L 416.79297 399.0625 L 416.79297 439.46875 L 389.1543 439.46875 L 389.1543 399.0625 L 389.1543 321.57617 L 389.1543 312.23828 C 389.1543 301.51984 395.31858 292.89062 402.97461 292.89062 z M 299.05078 327.13477 C 306.70681 327.13477 312.87109 335.76398 312.87109 346.48242 L 312.87109 433.30469 C 312.87109 444.02313 306.70681 452.65234 299.05078 452.65234 C 291.39475 452.65234 285.23242 444.02313 285.23242 433.30469 L 285.23242 346.48242 C 285.23242 335.76398 291.39475 327.13477 299.05078 327.13477 z "
       transform="translate(21.732285,24.28225)"
       id="rect15743" />
    <rect
       style="opacity:1;fill:#ffd700;fill-opacity:1;fill-rule:nonzero;stroke:#000000;stroke-width:5;stroke-linecap:round;stroke-linejoin:round;stroke-miterlimit:4;stroke-dasharray:none;stroke-dashoffset:0;stroke-opacity:1"
       id="rect15730"
       width="326.77225"
       height="87.468788"
       x="209.01318"
       y="497.1283" />
    <rect
       style="opacity:1;fill:#ffd700;fill-opacity:1;fill-rule:nonzero;stroke:#000000;stroke-width:5;stroke-linecap:round;stroke-linejoin:round;stroke-miterlimit:4;stroke-dasharray:none;stroke-dashoffset:0;stroke-opacity:1"
       id="rect15732"
       width="370.38385"
       height="56.286171"
       x="187.2074"
       y="440.84213" />
  </g>
</svg>

<svg xmlns="http://www.w3.org/2000/svg" width="748.09" height="791.22" viewBox="0 0 701.334 741.769"><path style="fill:#fff;fill-rule:evenodd;stroke:none;stroke-width:11;stroke-opacity:1" d="M27.412 29.782 40.81 446.407c7.415 175.25 153.92 314.046 331.59 314.144 177.509-.215 324.069-139.061 331.589-314.144l13.398-416.625h-344.98z" transform="translate(-21.732 -24.282)"/><path style="opacity:1;fill:#03f;fill-opacity:1;fill-rule:nonzero;stroke:#000;stroke-width:11;stroke-linecap:round;stroke-linejoin:round;stroke-miterlimit:4;stroke-dasharray:none;stroke-dashoffset:0;stroke-opacity:1" d="m5.68 5.5 6.341 197.205h677.292L695.654 5.5H5.68z"/><path style="fill:#fff;fill-rule:evenodd;stroke:#000;stroke-width:5;stroke-linecap:butt;stroke-linejoin:round;stroke-miterlimit:4;stroke-dasharray:none;stroke-opacity:1" d="M188.96 16.023C137.556 15.808 88.35 36.24 37.22 42.551a274.784 274.784 0 0 1-30.282 2.037l.948 29.496a274.652 274.652 0 0 0 29.334-2.02C90 65.55 140.727 43.99 193.94 45.625c26.605.817 52.553 7.442 78.272 13.826 25.718 6.385 51.834 12.613 78.453 12.613s52.735-6.228 78.453-12.613c25.719-6.384 51.667-13.009 78.272-13.826 53.214-1.635 103.943 19.925 156.724 26.44a274.652 274.652 0 0 0 29.334 2.019l.947-29.496a274.749 274.749 0 0 1-30.279-2.037c-52.781-6.515-103.51-28.075-156.724-26.44-26.605.818-52.555 7.442-78.274 13.826-25.718 6.385-51.832 12.614-78.451 12.614-26.619 0-52.737-6.23-78.455-12.614-25.719-6.384-51.665-13.008-78.27-13.826-1.663-.05-3.324-.08-4.982-.088zm0 59.03c-51.405-.216-100.61 20.214-151.741 26.525a274.514 274.514 0 0 1-28.385 2l.947 29.492a274.385 274.385 0 0 0 27.438-1.978C90 124.577 140.727 103.019 193.94 104.654c26.605.818 52.553 7.442 78.272 13.826 25.718 6.385 51.834 12.612 78.453 12.612s52.735-6.227 78.453-12.612c25.719-6.384 51.667-13.008 78.272-13.826 53.214-1.635 103.943 19.924 156.724 26.438a274.385 274.385 0 0 0 27.438 1.978l.947-29.492a274.515 274.515 0 0 1-28.385-2c-52.781-6.514-103.51-28.072-156.724-26.437-26.605.817-52.553 7.441-78.272 13.826-25.718 6.384-51.834 12.611-78.453 12.611s-52.735-6.227-78.453-12.611c-25.719-6.385-51.667-13.009-78.272-13.826-1.663-.051-3.322-.081-4.98-.088zm0 59.027c-51.405-.216-100.61 20.217-151.741 26.527a274.247 274.247 0 0 1-26.489 1.957l.95 29.495c8.54-.25 17.066-.892 25.539-1.938 52.781-6.514 103.508-28.074 156.722-26.44 26.605.818 52.553 7.442 78.272 13.827 25.718 6.384 51.834 12.613 78.453 12.613s52.735-6.229 78.453-12.613c25.719-6.385 51.667-13.009 78.272-13.826 53.214-1.635 103.943 19.925 156.724 26.44 8.473 1.045 17 1.686 25.54 1.937l.949-29.495a274.247 274.247 0 0 1-26.489-1.957c-52.781-6.514-103.51-28.074-156.724-26.439-26.605.817-52.553 7.442-78.272 13.826-25.718 6.385-51.834 12.613-78.453 12.613s-52.735-6.228-78.453-12.613c-25.719-6.384-51.667-13.009-78.272-13.826a187.515 187.515 0 0 0-4.98-.088z"/><path style="fill:red;fill-opacity:1;fill-rule:evenodd;stroke:#000;stroke-width:5;stroke-linecap:butt;stroke-linejoin:round;stroke-miterlimit:4;stroke-dasharray:none;stroke-opacity:1" d="m191.46 202.705 159.208 265.531 2.654-265.53H191.461zm159.208 265.531 336.049-184.832 2.596-80.699H507.976L350.668 468.236zm0 0 253.025 151.858c37.322-43.424 63.452-96.566 73.848-155.13l-326.873 3.272zm0 0-2.68 268.014c.893.008 1.784.019 2.678.02 50.6-.062 98.679-11.404 141.746-31.624l-141.744-236.41zm0 0L90.275 611.457c31.909 39.83 72.947 72.149 119.909 93.912l140.484-237.133zm0 0L14.064 266.221l5.014 155.904a324.711 324.711 0 0 0 5.899 49.373l325.691-3.262z"/><path style="fill:none;fill-rule:evenodd;stroke:#000;stroke-width:11;stroke-opacity:1" d="M27.412 29.782 40.81 446.407c7.415 175.25 153.92 314.046 331.59 314.144 177.509-.215 324.069-139.061 331.589-314.144l13.398-416.625h-344.98z" transform="translate(-21.732 -24.282)"/><path style="opacity:1;fill:none;fill-opacity:1;fill-rule:nonzero;stroke:#000;stroke-width:11;stroke-linecap:round;stroke-linejoin:round;stroke-miterlimit:4;stroke-dasharray:none;stroke-dashoffset:0;stroke-opacity:1" d="m27.412 29.782 6.342 197.205h677.29l6.343-197.205H27.412z" transform="translate(-21.732 -24.282)"/><path style="opacity:1;fill:gold;fill-opacity:1;fill-rule:nonzero;stroke:#000;stroke-width:4.99999952;stroke-linecap:round;stroke-linejoin:round;stroke-miterlimit:4;stroke-dasharray:none;stroke-dashoffset:0;stroke-opacity:1" d="M349.96 223.813c-18.986 0-34.27 15.284-34.27 34.271v51.47c-4.707-3.883-10.437-6.165-16.64-6.165-16.077 0-29.02 15.286-29.02 34.273v178.549c0 18.987 12.943 34.271 29.02 34.271 16.078 0 29.022-15.284 29.022-34.271v-53.17c5.93 4.914 13.551 7.865 21.889 7.865h1.658c8.55 0 16.343-3.107 22.334-8.248v18.727c0 18.987 12.944 34.273 29.022 34.273 16.077 0 29.021-15.286 29.021-34.273v-178.55c0-18.986-12.944-34.27-29.021-34.27-6.398 0-12.295 2.426-17.082 6.537v-17.018c0-18.987-15.287-34.272-34.274-34.272h-1.658zm.831 23.728c7.656 0 13.818 8.63 13.818 19.348v179.69c0 10.718-6.162 19.347-13.818 19.347s-13.82-8.63-13.82-19.348v-179.69c0-10.718 6.164-19.347 13.82-19.347zm52.184 45.35c7.656 0 13.818 8.629 13.818 19.347V439.47h-27.639V312.238c0-10.718 6.165-19.347 13.82-19.347zM299.05 327.135c7.656 0 13.82 8.629 13.82 19.347v86.823c0 10.718-6.164 19.347-13.82 19.347-7.656 0-13.819-8.629-13.819-19.347v-86.823c0-10.718 6.163-19.347 13.819-19.347z"/><path style="opacity:1;fill:gold;fill-opacity:1;fill-rule:nonzero;stroke:#000;stroke-width:5;stroke-linecap:round;stroke-linejoin:round;stroke-miterlimit:4;stroke-dasharray:none;stroke-dashoffset:0;stroke-opacity:1" d="M209.013 497.128h326.772v87.469H209.013zM187.207 440.842h370.384v56.286H187.207z" transform="translate(-21.732 -24.282)"/></svg>
